X:116
T:Steirer, Privatarchiv Hofer, Sammelgut Cordignano Hugo 12/1
C:traditionell
R:Steirer
B:"Hundert Steirer aus dem Ausseerland", F .Hofer, Steirisches Volksliedwerk, Graz, undated,
N:im buch in G, nr. 14
S:Privatarchiv Hofer, Sammelgut Cordignano Hugo 12/1, 1882 -1959
N:Quelle einstimmig
M:3/4
L:1/8
K:G
de |\
d2 c'd bd | c'd df Af | d2 c'd ad | bd dg Bg |\
d2 c'd bd | c'd df Af | d2 c'd ad | fg G2 :|
